X:465
T:Spanish Lady
S:Sessions etc
Z:Nigel Gatherer
M:2/4
L:1/8
K:D
FA AB/c/ | dd de/f/ | ge fd | BA A2 :|
fa af    | ed d>e   | fa af | ed e2  |
fa af | ed de/f/ | ge fd | BA A2    |]
